X:1
T:Title
%%score { ( 1 4 5 6 ) | ( 2 3 ) }
L:1/8
M:4/4
K:Ab
V:1 treble nm="Grand Piano"
V:4 treble 
V:5 treble 
V:6 treble 
V:2 bass 
V:3 bass 
V:1
 z4 z2[Q:1/4=100] [CA]>[DB] | [Ec]>[CE] [CE]>[CE] [DF]2 [CA]2 | [Ec]6 [Ec]2 | B>B c>c [Gd]2 [Gf]2 | %4
 e6 e>d | [Ec]>[CE] [CE]>[CE] [DF]2 [CA]2 | [Ec]6 [Fd]2 | c>B A>G A2 B2 | %8
[M:11/16] [CEA]/-[CEA]/-[CEA]/-[CEA]/-[CEA]/-[CEA]/-[CEA]/-[CEA]-<[CEA] |[M:5/16] E<FE/ | %10
[M:4/4] c6 z2 | G6 z2 | d6 z2 | c6 z2 | c6 z2 |[M:35/32] d3/2-d/4- d4- d3/4 z2 z/4 | %16
[M:4/4] z4 c2- c/4 z/4 z/ z |[M:3/4] A6 |] %18
V:2
 z4 z2 [A,,A,]2 | [A,,A,]>[A,,A,] [A,,A,]>[A,,A,] [A,,A,]2 [A,,A,]2 | [A,,A,]6 [A,,A,]2 | %3
 [E,G,E]>[E,G,E] [E,A,E]>[E,A,E] [E,B,]2 [E,D]2 | [A,CA]6[K:bass] [A,E]->[A,B,E] | %5
 [A,,A,]>[A,,A,] [A,,A,]>[A,,A,] [A,,A,]2 [A,,A,]2 | [A,,A,]6 [D,A,]2 | %7
 [E,A,E]>[E,DE] [E,CE]>[E,B,E] [E,CE]2 [E,DE]2 | %8
[M:11/16] A,,/-A,,/-A,,/-A,,/-A,,/-A,,/-A,,/-A,,-<A,, |[M:5/16] z5/2 | %10
[M:4/4] z z/ [A,,A,]/ [A,,A,]>[A,,A,] [A,,A,]2 z2 | z z/ [E,B,]/ [E,B,]>[E,B,] [E,B,]2 z2 | %12
 z z/ [E,G,]/ [E,G,]>[E,G,] [E,G,]2 z2 | z z/ [A,,A,]/ [A,,A,]>[A,,A,] [A,,A,]2 z2 | %14
 z z/ [A,,A,]/ [A,,A,]>[A,,A,] [A,,A,]2 z2 | %15
[M:35/32] z3/2 [D,A,]<[D,A,][D,A,]/[D,A,]-[D,A,]/4-(3:2:9[D,A,]-[D,A,]/4-[D,A,]/16 z3/8 z/16 [D,D]3/8-[D,D]/16 z3/8 z/16 (3:2:4[D,A,]3/2-[D,A,]/4[D,A,D]3/4-[D,A,D]/8 | %16
[M:4/4] [A,C]3- [A,C]/4 z/4 z/ [A,E]2- [A,E]/4 z/4 z/ z | %17
[M:3/4] (5:4:7z3/2 E,3/4 F,2- F,/4F,3/4 E,2- E,/4 |] %18
V:3
 x8 | x8 | x8 | x8 | z4 z2[K:bass] C2 | x8 | x8 | x8 |[M:11/16] x11/2 |[M:5/16] x5/2 |[M:4/4] x8 | %11
 x8 | x8 | x8 | x8 |[M:35/32] x35/4 |[M:4/4] (3:2:2E,4 [E,A,E]2 E,2 [E,G,D]2 |[M:3/4] A,,6 |] %18
V:4
 x8 | x8 | x8 | x8 | x8 | x8 | x8 | x8 |[M:11/16] x11/2 |[M:5/16] x5/2 | %10
[M:4/4] z z/ E/ E>E E>A B>A | z z/ D/ D>D D>E F>E | z z/ E/ E>E E>d B>_c | z z/ E/ E>E E>E F>E | %14
 z z/ E/ E>E E>A B>c | %15
[M:35/32] z3/2 F<FF/F-F/4-(3:2:9F-F/4-F/16 z3/8 z/16 [FA]3/8-[FA]/16 z3/8 z/16 (3:2:4[EG]3/2-[EG]/4F3/4-F/8 | %16
[M:4/4] (3:2:2E4 c2 z2 B2 |[M:3/4] z2 z z/ D/- D/4 z/4 z/ z |] %18
V:5
 x8 | x8 | x8 | x8 | x8 | x8 | x8 | x8 |[M:11/16] x11/2 |[M:5/16] x5/2 |[M:4/4] x8 | x8 | x8 | x8 | %14
 x8 |[M:35/32] x35/4 |[M:4/4] x8 |[M:3/4] (3:2:2z2 C z2 z2 |] %18
V:6
 x8 | x8 | x8 | x8 | x8 | x8 | x8 | x8 |[M:11/16] x11/2 |[M:5/16] x5/2 |[M:4/4] x8 | x8 | x8 | x8 | %14
 x8 |[M:35/32] x35/4 |[M:4/4] x8 |[M:3/4] (3[A,C]3 D3 C3 |] %18

